assets/images/biometric.svg

<svg width="160" height="160" viewBox="0 0 160 160" fill="none" xmlns="http://www.w3.org/2000/svg">
<g filter="url(#filter0_dd_421_5859)">
<circle cx="80" cy="80" r="60" fill="#D75F26"/>
</g>
<path d="M103.24 49.88C102.92 49.88 102.6 49.8 102.32 49.64C94.6399 45.68 87.9999 44 80.0399 44C72.1199 44 64.5999 45.88 57.7599 49.64C56.7999 50.16 55.5999 49.8 55.0399 48.84C54.5199 47.88 54.8799 46.64 55.8399 46.12C63.2799 42.08 71.4399 40 80.0399 40C88.5599 40 95.9999 41.88 104.16 46.08C105.16 46.6 105.52 47.8 105 48.76C104.64 49.48 103.96 49.88 103.24 49.88ZM45.9999 70.88C45.5999 70.88 45.1999 70.76 44.8399 70.52C43.9199 69.88 43.7199 68.64 44.3599 67.72C48.3199 62.12 53.3599 57.72 59.3599 54.64C71.9199 48.16 87.9999 48.12 100.6 54.6C106.6 57.68 111.64 62.04 115.6 67.6C116.24 68.48 116.04 69.76 115.12 70.4C114.2 71.04 112.96 70.84 112.32 69.92C108.72 64.88 104.16 60.92 98.7599 58.16C87.2799 52.28 72.5999 52.28 61.1599 58.2C55.7199 61 51.1599 65 47.5599 70.04C47.2399 70.6 46.6399 70.88 45.9999 70.88ZM70.9999 119.16C70.4799 119.16 69.9599 118.96 69.5999 118.56C66.1199 115.08 64.2399 112.84 61.5599 108C58.7999 103.08 57.3599 97.08 57.3599 90.64C57.3599 78.76 67.5199 69.08 79.9999 69.08C92.4799 69.08 102.64 78.76 102.64 90.64C102.64 91.76 101.76 92.64 100.64 92.64C99.5199 92.64 98.6399 91.76 98.6399 90.64C98.6399 80.96 90.2799 73.08 79.9999 73.08C69.7199 73.08 61.3599 80.96 61.3599 90.64C61.3599 96.4 62.6399 101.72 65.0799 106.04C67.6399 110.64 69.3999 112.6 72.4799 115.72C73.2399 116.52 73.2399 117.76 72.4799 118.56C72.0399 118.96 71.5199 119.16 70.9999 119.16ZM99.6799 111.76C94.9199 111.76 90.7199 110.56 87.2799 108.2C81.3199 104.16 77.7599 97.6 77.7599 90.64C77.7599 89.52 78.6399 88.64 79.7599 88.64C80.8799 88.64 81.7599 89.52 81.7599 90.64C81.7599 96.28 84.6399 101.6 89.5199 104.88C92.3599 106.8 95.6799 107.72 99.6799 107.72C100.64 107.72 102.24 107.6 103.84 107.32C104.92 107.12 105.96 107.84 106.16 108.96C106.36 110.04 105.64 111.08 104.52 111.28C102.24 111.72 100.24 111.76 99.6799 111.76ZM91.6399 120C91.4799 120 91.2799 119.96 91.1199 119.92C84.7599 118.16 80.5999 115.8 76.2399 111.52C70.6399 105.96 67.5599 98.56 67.5599 90.64C67.5599 84.16 73.0799 78.88 79.8799 78.88C86.6799 78.88 92.1999 84.16 92.1999 90.64C92.1999 94.92 95.9199 98.4 100.52 98.4C105.12 98.4 108.84 94.92 108.84 90.64C108.84 75.56 95.8399 63.32 79.8399 63.32C68.4799 63.32 58.0799 69.64 53.3999 79.44C51.8399 82.68 51.0399 86.48 51.0399 90.64C51.0399 93.76 51.3199 98.68 53.7199 105.08C54.1199 106.12 53.5999 107.28 52.5599 107.64C51.5199 108.04 50.3599 107.48 49.9999 106.48C48.0399 101.24 47.0799 96.04 47.0799 90.64C47.0799 85.84 47.9999 81.48 49.7999 77.68C55.1199 66.52 66.9199 59.28 79.8399 59.28C98.0399 59.28 112.84 73.32 112.84 90.6C112.84 97.08 107.32 102.36 100.52 102.36C93.7199 102.36 88.1999 97.08 88.1999 90.6C88.1999 86.32 84.4799 82.84 79.8799 82.84C75.2799 82.84 71.5599 86.32 71.5599 90.6C71.5599 97.44 74.1999 103.84 79.0399 108.64C82.8399 112.4 86.4799 114.48 92.1199 116.04C93.1999 116.32 93.7999 117.44 93.5199 118.48C93.3199 119.4 92.4799 120 91.6399 120Z" fill="white"/>
<circle cx="80" cy="80" r="79.5" stroke="#B9BABE"/>
<defs>
<filter id="filter0_dd_421_5859" x="8" y="13" width="144" height="144" filterUnits="userSpaceOnUse" color-interpolation-filters="sRGB">
<feFlood flood-opacity="0" result="BackgroundImageFix"/>
<feColorMatrix in="SourceAlpha" type="matrix" values="0 0 0 0 0 0 0 0 0 0 0 0 0 0 0 0 0 0 127 0" result="hardAlpha"/>
<feOffset dy="2"/>
<feGaussianBlur stdDeviation="3"/>
<feComposite in2="hardAlpha" operator="out"/>
<feColorMatrix type="matrix" values="0 0 0 0 1 0 0 0 0 0.490196 0 0 0 0 0.356863 0 0 0 0.4 0"/>
<feBlend mode="normal" in2="BackgroundImageFix" result="effect1_dropShadow_421_5859"/>
<feColorMatrix in="SourceAlpha" type="matrix" values="0 0 0 0 0 0 0 0 0 0 0 0 0 0 0 0 0 0 127 0" result="hardAlpha"/>
<feOffset dy="5"/>
<feGaussianBlur stdDeviation="6"/>
<feComposite in2="hardAlpha" operator="out"/>
<feColorMatrix type="matrix" values="0 0 0 0 1 0 0 0 0 0.490196 0 0 0 0 0.356863 0 0 0 0.08 0"/>
<feBlend mode="normal" in2="effect1_dropShadow_421_5859" result="effect2_dropShadow_421_5859"/>
<feBlend mode="normal" in="SourceGraphic" in2="effect2_dropShadow_421_5859" result="shape"/>
</filter>
</defs>
</svg>

<svg xmlns="http://www.w3.org/2000/svg" width="160" height="160" fill="none"><g filter="url(#a)"><circle cx="80" cy="80" r="60" fill="#D75F26"/></g><path fill="#fff" d="M103.24 49.88c-.32 0-.64-.08-.92-.24C94.64 45.68 88 44 80.04 44c-7.92 0-15.44 1.88-22.28 5.64-.96.52-2.16.16-2.72-.8-.52-.96-.16-2.2.8-2.72 7.44-4.04 15.6-6.12 24.2-6.12 8.52 0 15.96 1.88 24.12 6.08 1 .52 1.36 1.72.84 2.68-.36.72-1.04 1.12-1.76 1.12ZM46 70.88c-.4 0-.8-.12-1.16-.36-.92-.64-1.12-1.88-.48-2.8 3.96-5.6 9-10 15-13.08 12.56-6.48 28.64-6.52 41.24-.04 6 3.08 11.04 7.44 15 13a2 2 0 0 1-.48 2.8c-.92.64-2.16.44-2.8-.48-3.6-5.04-8.16-9-13.56-11.76-11.48-5.88-26.16-5.88-37.6.04-5.44 2.8-10 6.8-13.6 11.84-.32.56-.92.84-1.56.84Zm25 48.28c-.52 0-1.04-.2-1.4-.6-3.48-3.48-5.36-5.72-8.04-10.56-2.76-4.92-4.2-10.92-4.2-17.36 0-11.88 10.16-21.56 22.64-21.56s22.64 9.68 22.64 21.56c0 1.12-.88 2-2 2s-2-.88-2-2c0-9.68-8.36-17.56-18.64-17.56-10.28 0-18.64 7.88-18.64 17.56 0 5.76 1.28 11.08 3.72 15.4 2.56 4.6 4.32 6.56 7.4 9.68.76.8.76 2.04 0 2.84-.44.4-.96.6-1.48.6Zm28.68-7.4c-4.76 0-8.96-1.2-12.4-3.56-5.96-4.04-9.52-10.6-9.52-17.56 0-1.12.88-2 2-2s2 .88 2 2c0 5.64 2.88 10.96 7.76 14.24 2.84 1.92 6.16 2.84 10.16 2.84.96 0 2.56-.12 4.16-.4 1.08-.2 2.12.52 2.32 1.64.2 1.08-.52 2.12-1.64 2.32-2.28.44-4.28.48-4.84.48ZM91.64 120c-.16 0-.36-.04-.52-.08-6.36-1.76-10.52-4.12-14.88-8.4-5.6-5.56-8.68-12.96-8.68-20.88 0-6.48 5.52-11.76 12.32-11.76 6.8 0 12.32 5.28 12.32 11.76 0 4.28 3.72 7.76 8.32 7.76s8.32-3.48 8.32-7.76c0-15.08-13-27.32-29-27.32-11.36 0-21.76 6.32-26.44 16.12-1.56 3.24-2.36 7.04-2.36 11.2 0 3.12.28 8.04 2.68 14.44.4 1.04-.12 2.2-1.16 2.56-1.04.4-2.2-.16-2.56-1.16-1.96-5.24-2.92-10.44-2.92-15.84 0-4.8.92-9.16 2.72-12.96 5.32-11.16 17.12-18.4 30.04-18.4 18.2 0 33 14.04 33 31.32 0 6.48-5.52 11.76-12.32 11.76-6.8 0-12.32-5.28-12.32-11.76 0-4.28-3.72-7.76-8.32-7.76s-8.32 3.48-8.32 7.76c0 6.84 2.64 13.24 7.48 18.04 3.8 3.76 7.44 5.84 13.08 7.4 1.08.28 1.68 1.4 1.4 2.44-.2.92-1.04 1.52-1.88 1.52Z"/><circle cx="80" cy="80" r="79.5" stroke="#B9BABE"/><defs><filter id="a" width="144" height="144" x="8" y="13" color-interpolation-filters="sRGB" filterUnits="userSpaceOnUse"><feFlood flood-opacity="0" result="BackgroundImageFix"/><feColorMatrix in="SourceAlpha" result="hardAlpha" values="0 0 0 0 0 0 0 0 0 0 0 0 0 0 0 0 0 0 127 0"/><feOffset dy="2"/><feGaussianBlur stdDeviation="3"/><feComposite in2="hardAlpha" operator="out"/><feColorMatrix values="0 0 0 0 1 0 0 0 0 0.490196 0 0 0 0 0.356863 0 0 0 0.4 0"/><feBlend in2="BackgroundImageFix" result="effect1_dropShadow_421_5859"/><feColorMatrix in="SourceAlpha" result="hardAlpha" values="0 0 0 0 0 0 0 0 0 0 0 0 0 0 0 0 0 0 127 0"/><feOffset dy="5"/><feGaussianBlur stdDeviation="6"/><feComposite in2="hardAlpha" operator="out"/><feColorMatrix values="0 0 0 0 1 0 0 0 0 0.490196 0 0 0 0 0.356863 0 0 0 0.08 0"/><feBlend in2="effect1_dropShadow_421_5859" result="effect2_dropShadow_421_5859"/><feBlend in="SourceGraphic" in2="effect2_dropShadow_421_5859" result="shape"/></filter></defs></svg>
